X:1
T:Prelude in C
T:BWV 939
T:J.S. Bach
T:Public Domain Typeset by Mic Professional Music
Z:Public Domain
Z:Typeset by Mic Professional Music
%%score { 1 | 2 }
L:1/8
M:4/4
K:C
V:1 treble nm="Piano"
V:2 bass 
V:1
 z CEG EC_BG | ACFA FCcA | BGBd BGfd | [Gce]4 z2 [Gce]2 | [Acd]4 z2 [Acd]2 | [GBd]GBd [GB]2 [Be]2 | %6
 c4 z2 [EAc]2- | [EAc]D^FA FDcA | BGBd BGfd | eGce cGge | ^fAcf cAaf | [Bdg]4 z2 B2 | cegc' ge_bg | %13
 a/g/f/e/ d/c/B/A/ B/G/A/B/ c/d/e/f/ | g2 [Gc]4 [DB]2 | c8 |] %16
V:2
 [C,,C,]8- | [C,,C,]8- | [C,,C,]8 | z C,E,G, E,C,CE, | ^F,D,F,A, F,D,DF, | G,4 z2 G,2 | %6
 A,A,,C,E, C,A,,G,E, | ^F,4 z2 D,2 | MG,2 G,,2 MG,2 G,,2 | MG,2 G,,2 MG,2 G,,2 | %10
 MG,2 G,,2 MG,2 G,,2 | G,G,,B,,D, B,,G,,F,D, | E,C,E,F, E,C,CE, | F,8- | F,D,E,C, G,2 G,,2 | %15
 C,,8 |] %16

